modules/hawcons-filled/icons/icon-65-document-image.svg

<?xml version="1.0" encoding="UTF-8" standalone="no"?>
<svg width="32px" height="32px" viewBox="0 0 32 32" version="1.1" xmlns="http://www.w3.org/2000/svg" xmlns:xlink="http://www.w3.org/1999/xlink" xmlns:sketch="http://www.bohemiancoding.com/sketch/ns">
    <!-- Generator: Sketch 3.0.3 (7891) - http://www.bohemiancoding.com/sketch -->
    <title>icon 65 document image</title>
    <desc>Created with Sketch.</desc>
    <defs></defs>
    <g id="Page-1" stroke="none" stroke-width="1" fill="none" fill-rule="evenodd" sketch:type="MSPage">
        <g id="icon-65-document-image" sketch:type="MSArtboardGroup" fill="#929292">
            <path d="M22,24.0457281 L22,18 L11,18 L11,25 L11,25 L13.5,23 L14.9579388,24.2496618 L18.5930302,21 L22,24.0457281 L22,24.0457281 L22,24.0457281 Z M19,3 L9.0085302,3 C7.8992496,3 7,3.89833832 7,5.00732994 L7,27.9926701 C7,29.1012878 7.89092539,30 8.99742191,30 L24.0025781,30 C25.1057238,30 26,29.1090746 26,28.0025781 L26,11 L21.0059191,11 C19.8980806,11 19,10.1132936 19,9.00189865 L19,3 L19,3 Z M20,3 L20,8.99707067 C20,9.55097324 20.4509752,10 20.990778,10 L26,10 L20,3 L20,3 Z M10,17 L10,27 L23,27 L23,17 L10,17 L10,17 Z M14,21 C14.5522848,21 15,20.5522848 15,20 C15,19.4477152 14.5522848,19 14,19 C13.4477152,19 13,19.4477152 13,20 C13,20.5522848 13.4477152,21 14,21 L14,21 Z" id="document-image" sketch:type="MSShapeGroup"></path>
        </g>
    </g>
</svg>

<svg width="32" height="32" xmlns="http://www.w3.org/2000/svg"><path d="M22 24.046V18H11v7l2.5-2 1.458 1.25L18.593 21 22 24.046zM19 3H9.009C7.899 3 7 3.898 7 5.007v22.986A2 2 0 0 0 8.997 30h15.006C25.106 30 26 29.11 26 28.003V11h-4.994A1.997 1.997 0 0 1 19 9.002V3zm1 0v5.997c0 .554.451 1.003.99 1.003H26l-6-7zM10 17v10h13V17H10zm4 4a1 1 0 1 0 0-2 1 1 0 0 0 0 2z" fill="#929292" fill-rule="evenodd"/></svg>
